frontend/public/assets/material-icons/folder-git.svg

<svg xmlns="http://www.w3.org/2000/svg" viewBox="0 0 32 32">
  <path d="M13.84376,7.53645l-1.28749-1.0729A2,2,0,0,0,11.27591,6H4A2,2,0,0,0,2,8V24a2,2,0,0,0,2,2H28a2,2,0,0,0,2-2V10a2,2,0,0,0-2-2H15.12412A2,2,0,0,1,13.84376,7.53645Z" style="fill: #ff7043"/>
  <path d="M12.59294,18.58894l5.78434-5.79434,1.69127,1.70127a1.98328,1.98328,0,0,0,.9307,2.23167V22.2717A1.98545,1.98545,0,0,0,19.9985,24.003a2.0015,2.0015,0,0,0,4.003,0,1.98545,1.98545,0,0,0-1.00075-1.7313V17.40806l2.07155,2.09156a1.17,1.17,0,0,0-.07.50038,2.0015,2.0015,0,1,0,2.0015-2.0015,1.17,1.17,0,0,0-.50037.07l-2.57193-2.57193a1.98148,1.98148,0,0,0-1.15086-2.34175,2.10389,2.10389,0,0,0-1.281-.09007l-1.70128-1.69127.79059-.78059a1.97546,1.97546,0,0,1,2.82212,0l7.996,7.996a1.97544,1.97544,0,0,1,0,2.82212l-7.996,7.996a1.97544,1.97544,0,0,1-2.82212,0l-7.996-7.996A1.97546,1.97546,0,0,1,12.59294,18.58894Z" style="fill: #ffccbc"/>
</svg>

<svg xmlns="http://www.w3.org/2000/svg" viewBox="0 0 32 32"><path fill="#ff7043" d="m13.844 7.536-1.288-1.072A2 2 0 0 0 11.276 6H4a2 2 0 0 0-2 2v16a2 2 0 0 0 2 2h24a2 2 0 0 0 2-2V10a2 2 0 0 0-2-2H15.124a2 2 0 0 1-1.28-.464"/><path fill="#ffccbc" d="m12.593 18.589 5.784-5.794 1.692 1.7a1.98 1.98 0 0 0 .93 2.233v5.544a1.99 1.99 0 0 0-1 1.731 2.002 2.002 0 0 0 4.003 0A1.99 1.99 0 0 0 23 22.272v-4.864l2.071 2.092a1.2 1.2 0 0 0-.07.5 2.002 2.002 0 1 0 2.002-2.002 1.2 1.2 0 0 0-.5.07l-2.573-2.571a1.98 1.98 0 0 0-1.15-2.342 2.1 2.1 0 0 0-1.281-.09l-1.702-1.692.791-.78a1.975 1.975 0 0 1 2.822 0l7.996 7.996a1.975 1.975 0 0 1 0 2.822l-7.996 7.996a1.975 1.975 0 0 1-2.822 0l-7.996-7.996a1.975 1.975 0 0 1 0-2.822Z"/></svg>
